mimes/scalable/application-epub+zip.svg

<?xml version="1.0" encoding="UTF-8" standalone="no"?>
<svg
   xmlns:dc="http://purl.org/dc/elements/1.1/"
   xmlns:cc="http://creativecommons.org/ns#"
   xmlns:rdf="http://www.w3.org/1999/02/22-rdf-syntax-ns#"
   xmlns:svg="http://www.w3.org/2000/svg"
   xmlns="http://www.w3.org/2000/svg"
   xmlns:sodipodi="http://sodipodi.sourceforge.net/DTD/sodipodi-0.dtd"
   xmlns:inkscape="http://www.inkscape.org/namespaces/inkscape"
   width="48"
   height="48"
   viewBox="0 0 12.7 12.7"
   version="1.1"
   id="svg4"
   sodipodi:docname="application-epub+zip.svg"
   inkscape:version="0.92.3 (2405546, 2018-03-11)">
  <metadata
     id="metadata10">
    <rdf:RDF>
      <cc:Work
         rdf:about="">
        <dc:format>image/svg+xml</dc:format>
        <dc:type
           rdf:resource="http://purl.org/dc/dcmitype/StillImage" />
        <dc:title></dc:title>
      </cc:Work>
    </rdf:RDF>
  </metadata>
  <defs
     id="defs8" />
  <sodipodi:namedview
     pagecolor="#ffffff"
     bordercolor="#666666"
     borderopacity="1"
     objecttolerance="10"
     gridtolerance="10"
     guidetolerance="10"
     inkscape:pageopacity="0"
     inkscape:pageshadow="2"
     inkscape:window-width="1366"
     inkscape:window-height="715"
     id="namedview6"
     showgrid="false"
     showguides="true"
     inkscape:guide-bbox="true"
     inkscape:snap-global="true"
     inkscape:zoom="2.7552083"
     inkscape:cx="24"
     inkscape:cy="24"
     inkscape:window-x="0"
     inkscape:window-y="27"
     inkscape:window-maximized="1"
     inkscape:current-layer="svg4" />
  <g
     id="g827">
    <path
       id="path965"
       d="m 7.3492433,0.0566603 c -0.040983,0 -0.078161,0.0127642 -0.1049033,0.0330729 C 7.218411,0.1094229 7.202933,0.1367362 7.201965,0.1667311 7.3445127,0.2235372 7.4736634,0.30302596 7.5802366,0.40909358 7.76971,0.59766786 7.8931916,0.85276088 7.9104491,1.1392812 h 0.00672 v 0.068213 0.1441772 0.1369425 0.1927531 c 0,0.2812905 0.2266883,0.5079794 0.5079795,0.5079794 h 0.1183391 l -5.291e-4,0.00568 h 1.6924064 c 0.329951,0 0.613684,0.1491999 0.819072,0.3731038 V 1.141865 0.56463964 c 0,-0.14064565 -0.05654,-0.26789289 -0.148312,-0.35966798 C 10.814345,0.11319656 10.687101,0.0566603 10.546455,0.0566603 H 9.0462851 7.7864139 Z"
       style="opacity:1;fill:#a02c2c;fill-opacity:1;fill-rule:nonzero;stroke:none;stroke-width:0.50711805;stroke-linecap:round;stroke-linejoin:bevel;stroke-miterlimit:4;stroke-dasharray:none;stroke-opacity:1"
       inkscape:connector-curvature="0" />
    <path
       inkscape:connector-curvature="0"
       id="path833"
       d="m 2.9460732,0.55206094 c -0.6285519,0 -1.134298,0.50626306 -1.134298,1.13481446 v 9.9012056 c 0,0.628551 0.5057461,1.134814 1.134298,1.134814 h 4.2855261 2.522327 c 0.6285527,0 1.1342987,-0.506263 1.1342987,-1.134814 V 3.6728008 h -0.01292 C 10.810197,3.1070068 10.337709,2.6687276 9.7539263,2.6687276 h -1.692403 v 0 l -0.11781,-0.00568 C 7.6627483,2.6495013 7.4357343,2.4363589 7.4357343,2.1550682 V 1.9623107 1.8253682 1.6811909 1.612978 h -0.0067 C 7.3941823,1.0346118 6.9321933,0.5804805 6.3510473,0.55464473 l -5.29e-4,-0.002585 h -0.02015 z"
       style="opacity:1;fill:#333333;fill-opacity:1;fill-rule:nonzero;stroke:none;stroke-width:0.50711805;stroke-linecap:round;stroke-linejoin:bevel;stroke-miterlimit:4;stroke-dasharray:none;stroke-opacity:1" />
    <path
       inkscape:connector-curvature="0"
       id="path901-5"
       d="m 6.4269983,1.0791605 c 0.263277,0.019482 0.470254,0.2359637 0.470255,0.504362 v 0.2563151 0.125057 0.092501 c 0,0.5757933 0.427721,1.0388807 0.982369,1.1136271 v 0 l 1.962134,0.026872 c 0.2812647,0.00385 0.5079787,0.2266886 0.5079797,0.5079793 V 5.7894678 11.68575 c 0,0.281291 -0.226688,0.50798 -0.5079797,0.50798 H 7.2315993 2.8582236 c -0.281291,0 -0.50798,-0.226689 -0.50798,-0.50798 V 1.5892069 c 0,-0.2812907 0.226689,-0.5079794 0.50798,-0.5079794 h 3.5692907 z"
       style="opacity:1;fill:#cccccc;fill-opacity:1;fill-rule:nonzero;stroke:none;stroke-width:0.50711805;stroke-linecap:round;stroke-linejoin:bevel;stroke-miterlimit:4;stroke-dasharray:none;stroke-opacity:1" />
    <path
       sodipodi:nodetypes="ccccccc"
       id="path3509"
       d="m 3.851599,0.54099134 c -0.317778,0.002566 -0.6187869,0.00655 -0.9055258,0.0110696 V 7.2680831 L 3.5829265,6.795738 4.2197797,7.2680822 V 0.54099134 c -0.1209333,6.1686e-4 -0.2517703,-9.4191e-4 -0.3681807,0 z"
       style="display:inline;fill:#a02c2c;fill-opacity:1;stroke:none;stroke-width:0.35282004;enable-background:new"
       inkscape:connector-curvature="0" />
    <path
       style="fill:#a02c2c;fill-opacity:1;stroke-width:0.26458332"
       d="M 6.3499217,10.628191 4.8533854,9.1315215 6.3499217,7.6350647 6.8488202,8.1338572 5.8510498,9.1315215 6.3499217,9.63042 7.8464578,8.133963 6.542803,6.830308 c -0.1064525,-0.106545 -0.2791355,-0.106545 -0.3856567,0 l -2.108544,2.108544 c -0.1064551,0.1064551 -0.1064551,0.2791354 0,0.3856566 l 2.1085704,2.1084664 c 0.1065451,0.106545 0.2792148,0.106545 0.3856567,0 L 8.6513997,9.3245086 c 0.1064525,-0.106545 0.1064525,-0.2792148 0,-0.3856566 L 8.3453032,8.6328349 Z"
       class="ColorScheme-Text"
       id="b"
       inkscape:connector-curvature="0" />
  </g>
</svg>

<?xml version="1.0" encoding="UTF-8" standalone="no"?><svg xmlns:dc="http://purl.org/dc/elements/1.1/" xmlns:cc="http://creativecommons.org/ns#" xmlns:rdf="http://www.w3.org/1999/02/22-rdf-syntax-ns#" xmlns="http://www.w3.org/2000/svg" width="48" height="48" viewBox="0 0 12.7 12.7"><metadata><rdf:RDF><cc:Work><dc:format>image/svg+xml</dc:format><dc:type rdf:resource="http://purl.org/dc/dcmitype/StillImage"/><dc:title/></cc:Work></rdf:RDF></metadata><path d="M7.35.06a.17.17 0 0 0-.1.03.1.1 0 0 0-.05.08 1.12 1.12 0 0 1 .71.97v.55c0 .27.23.5.52.5h1.81c.33 0 .6.15.81.38V.56a.5.5 0 0 0-.5-.5H7.79z" fill="#a02c2c"/><path d="M2.95.55c-.63 0-1.14.5-1.14 1.14v9.9c0 .63.5 1.13 1.14 1.13H9.75c.63 0 1.14-.5 1.14-1.13V3.67h-.01c-.07-.56-.54-1-1.13-1H7.94a.52.52 0 0 1-.5-.51V1.6h-.01A1.12 1.12 0 0 0 6.35.55h-.02z" fill="#333"/><path d="M6.43 1.08a.5.5 0 0 1 .47.5v.48c0 .57.42 1.04.98 1.11l1.96.03c.28 0 .51.22.51.5v7.99a.5.5 0 0 1-.5.5H2.85a.5.5 0 0 1-.51-.5V1.59c0-.28.23-.5.5-.5h3.58z" fill="#ccc"/><path d="M3.85.54l-.9.01v6.72l.63-.47.64.47V.54h-.37z" fill="#a02c2c"/><path d="M6.35 10.63l-1.5-1.5 1.5-1.5.5.5-1 1 .5.5 1.5-1.5-1.3-1.3a.27.27 0 0 0-.4 0l-2.1 2.1c-.1.12-.1.29 0 .4l2.1 2.1c.11.11.29.11.4 0l2.1-2.1c.1-.11.1-.28 0-.4l-.3-.3z" class="ColorScheme-Text" fill="#a02c2c"/></svg>
